packages/blockchain-info-components/src/Images/img/bank-rejected.svg

<svg fill="none" height="104" viewBox="0 0 104 104" width="104" xmlns="http://www.w3.org/2000/svg" xmlns:xlink="http://www.w3.org/1999/xlink"><clipPath id="a"><path d="m63 9h40v40h-40z"/></clipPath><path d="m30.6842 55.5v21h8.5263v-21zm17.0526 0v21h8.5264v-21zm-22.7368 36h54v-9h-54zm39.7895-36v21h8.5263v-21zm-12.7895-27-27 15v6h54v-6z" fill="#0c6cf2"/><g clip-path="url(#a)"><circle cx="83" cy="29" fill="#fff" r="20"/><path d="m82.9997 12.3333c-9.2167 0-16.6667 7.45-16.6667 16.6666 0 9.2167 7.45 16.6667 16.6667 16.6667 9.2166 0 16.6666-7.45 16.6666-16.6667 0-9.2166-7.45-16.6666-16.6666-16.6666zm8.3333 22.65-2.35 2.35-5.9833-5.9834-5.9834 5.9834-2.35-2.35 5.9834-5.9834-5.9834-5.9833 2.35-2.35 5.9834 5.9833 5.9833-5.9833 2.35 2.35-5.9833 5.9833z" fill="#f5a250"/></g></svg>

<svg width="104" height="104" viewBox="0 0 104 104" fill="none" xmlns="http://www.w3.org/2000/svg">
<path d="M30.6842 55.5V76.5H39.2105V55.5H30.6842ZM47.7368 55.5V76.5H56.2632V55.5H47.7368ZM25 91.5H79V82.5H25V91.5ZM64.7895 55.5V76.5H73.3158V55.5H64.7895ZM52 28.5L25 43.5V49.5H79V43.5L52 28.5Z" fill="#0C6CF2"/>
<g clip-path="url(#clip0)">
<circle cx="83" cy="29" r="20" fill="white"/>
<path d="M82.9997 12.3333C73.783 12.3333 66.333 19.7833 66.333 28.9999C66.333 38.2166 73.783 45.6666 82.9997 45.6666C92.2163 45.6666 99.6663 38.2166 99.6663 28.9999C99.6663 19.7833 92.2163 12.3333 82.9997 12.3333ZM91.333 34.9833L88.983 37.3333L82.9997 31.3499L77.0163 37.3333L74.6663 34.9833L80.6497 28.9999L74.6663 23.0166L77.0163 20.6666L82.9997 26.6499L88.983 20.6666L91.333 23.0166L85.3497 28.9999L91.333 34.9833Z" fill="#F5A250"/>
</g>
<defs>
<clipPath id="clip0">
<rect width="40" height="40" fill="white" transform="translate(63 9)"/>
</clipPath>
</defs>
</svg>
